X: 87
T: Kol Erkers polska efter Frost Anders
S: efter Frost Anders
R: Polska
S: Knd genom BOOT
D: BOOT, Virvla
Z: Hkan Lidn, 2008-09-28
Q: 3/8=128
M: 9/8
L: 1/8
K: Am
E2 D E ^F2 G2 E | AG A2 B2 A2 G | E2 D E ^F2 G2 E | AG E2 D2 B,3- |
B,2 D E ^F2 G2 E | AG A2 B2 A2 G | E2 D E ^F2 G2 E | (4:6:4G/^F/E/D/ E6 :|[K:A]
|:e2 c A c2 e2 d| BG A2 B2 (2:3:3cB/c/| (2d=g (4:6:4e/f/e/d/ (2 cB | e2 c A G2 E3- |
E2 G (4:6:4A/B/c/d/ e2 d | BG A2 B2 (2:3:3cB/c/| (2 d=g (4:6:4e/f/e/d/ (2cB | (2ec A6 :|]
